assets/svg/icon_categories_game.svg

<svg width="24" height="24" viewBox="0 0 24 24" fill="none" xmlns="http://www.w3.org/2000/svg">
    <path d="M9.2 10.0293V12.4293M8 11.2293L10.4 11.2293" stroke="#9A9A9A" stroke-width="1.2"
        stroke-linecap="round" />
    <path
        d="M19.9358 15.1314L19.0679 11.5183C18.5773 9.47599 18.332 8.45479 17.6362 7.78505C17.4601 7.61555 17.2655 7.46531 17.0558 7.33702C16.2273 6.83008 15.1497 6.83008 12.9945 6.83008H11.0055C8.8503 6.83008 7.77271 6.83008 6.94419 7.33702C6.73451 7.46531 6.53989 7.61555 6.36379 7.78505C5.66798 8.4548 5.42268 9.47598 4.9321 11.5183L4.06423 15.1314C3.75915 16.4015 4.57012 17.6717 5.87531 17.9681C6.97597 18.218 8.10816 17.6952 8.60531 16.7074L8.70771 16.5039C9.16417 15.5969 10.1114 15.022 11.1491 15.022H12.8509C13.8886 15.022 14.8358 15.5969 15.2923 16.5039L15.3947 16.7074C15.8918 17.6952 17.024 18.218 18.1247 17.9681C19.4299 17.6717 20.2408 16.4015 19.9358 15.1314Z"
        stroke="#9A9A9A" stroke-width="1.2" />
    <path
        d="M12 6.82891V6.02891C12 5.58708 12.3582 5.22891 12.8 5.22891H13.6C14.0418 5.22891 14.4 4.87073 14.4 4.42891V3.62891"
        stroke="#9A9A9A" stroke-width="1.2" stroke-linecap="round" />
    <path
        d="M15.1996 10.0285C15.1996 10.4703 14.8414 10.8285 14.3996 10.8285C13.9578 10.8285 13.5996 10.4703 13.5996 10.0285C13.5996 9.58669 13.9578 9.22852 14.3996 9.22852C14.8414 9.22852 15.1996 9.58669 15.1996 10.0285Z"
        fill="#9A9A9A" />
    <path
        d="M16.7996 12.4285C16.7996 12.8703 16.4414 13.2285 15.9996 13.2285C15.5578 13.2285 15.1996 12.8703 15.1996 12.4285C15.1996 11.9867 15.5578 11.6285 15.9996 11.6285C16.4414 11.6285 16.7996 11.9867 16.7996 12.4285Z"
        fill="#9A9A9A" />
</svg>

<svg xmlns="http://www.w3.org/2000/svg" width="24" height="24" fill="none"><path stroke="#9A9A9A" stroke-linecap="round" stroke-width="1.2" d="M9.2 10.03v2.4M8 11.23h2.4"/><path stroke="#9A9A9A" stroke-width="1.2" d="m19.936 15.131-.868-3.613c-.49-2.042-.736-3.063-1.432-3.733q-.265-.255-.58-.448c-.829-.507-1.906-.507-4.062-.507h-1.989c-2.155 0-3.232 0-4.06.507q-.316.193-.581.448c-.696.67-.941 1.691-1.432 3.733l-.868 3.613c-.305 1.27.506 2.54 1.811 2.837 1.101.25 2.233-.273 2.73-1.26l.103-.204a2.73 2.73 0 0 1 2.441-1.482h1.702c1.038 0 1.985.575 2.441 1.482l.103.203c.497.988 1.629 1.511 2.73 1.261 1.305-.296 2.116-1.567 1.81-2.837Z"/><path stroke="#9A9A9A" stroke-linecap="round" stroke-width="1.2" d="M12 6.829v-.8a.8.8 0 0 1 .8-.8h.8a.8.8 0 0 0 .8-.8v-.8"/><path fill="#9A9A9A" d="M15.2 10.029a.8.8 0 1 1-1.6 0 .8.8 0 0 1 1.6 0M16.8 12.429a.8.8 0 1 1-1.6 0 .8.8 0 0 1 1.6 0"/></svg>
